src/assets/icons/muscles_parts/triceps.svg

<svg id="Layer_2" enable-background="new 0 0 512 512" viewBox="0 0 512 512" xmlns="http://www.w3.org/2000/svg"><g><g><path d="m254.771 507.294c-53.055 0-113.205-35.77-115.739-37.292-1.165-.699-1.895-1.942-1.938-3.301l-1.394-43.587c-.008-.259.009-.519.051-.773l8.339-50.958c2.197-13.428-1.431-26.998-9.952-37.231-5.459-6.555-8.987-12.426-11.137-16.613l-18.654 24.101c.594 7.312 1.471 36.451-17.722 69.353-.614 1.053-1.674 1.768-2.88 1.942-1.201.179-2.425-.208-3.313-1.042l-54.463-51.153c-.805-.757-1.262-1.812-1.262-2.916v-40.857c0-.048.001-.095.003-.143 1.795-50.276 28.202-74.486 36.112-80.635-1.533-9.755-5.849-45.496 6.415-80.234 12.891-36.517 57.436-52.173 62.786-53.936l71.668-42.661 6.781-44.589c.254-1.675 1.537-3.008 3.201-3.327l22.57-4.328c13.612-2.609 27.427-2.655 41.055-.133l24.079 4.456c1.676.311 2.971 1.647 3.227 3.332l6.782 44.589 71.667 42.661c5.346 1.761 49.896 17.417 62.786 53.936 12.374 35.051 6.543 69.822 4.645 78.962 7.206 7.366 34.528 38.557 36.35 89.554.002.047.003.095.003.143v33.211c0 1.085-.44 2.123-1.221 2.876l-52.929 51.152c-.882.854-2.106 1.25-3.326 1.087-1.217-.169-2.289-.887-2.908-1.947-19.192-32.901-18.316-62.04-17.723-69.353l-18.653-24.101c-2.149 4.188-5.678 10.059-11.136 16.613-8.523 10.233-12.151 23.803-9.954 37.231l8.339 50.958c.042.255.059.515.051.773l-1.394 43.587c-.044 1.373-.79 2.628-1.976 3.323-2.596 1.522-64.204 37.27-117.236 37.27z" fill="#484f69"/></g><g><path d="m250.413 26.421v40.573c0 11.104-4.525 21.699-12.471 29.202l-6.777 6.398 7.004 5.929c7.752 6.562 12.244 16.354 12.244 26.69v168.175c0 3.098-3.995 4.176-5.469 1.476l-53.144-77.005c-1.911-3.499-2.69-7.526-2.253-11.515 2.17-19.774 3.316-83.149-42.294-101.898-4.63-1.903-4.992-8.496-.563-10.854l59.534-31.704 34.672-48.678c3.012-4.229 9.517-2.034 9.517 3.211z" fill="#9fabce"/></g><g><path d="m114.216 114.779c6.027-2.874 12.982-3.088 19.236-.746 10.423 3.903 26.356 10.267 34.07 26.796 5.011 10.738-48.043 6.593-53.194 46.803-.703 5.487-3.54 10.492-7.894 13.904-3.472 2.721-4.255 2.722-27.78 23.883-3.378 3.039-8.786 1.387-9.859-3.029-5.539-22.785-12.627-79.931 45.421-107.611z" fill="#9fabce"/></g><g><path d="m119.951 198.948c-.044-17.535 10.978-33.187 27.502-39.054l19.393-6.886c4.644-2.211 9.247 1.088 10.362 6.109 3.087 13.9 6.93 31.297 3.483 58.609-.469 3.714-3.018 6.843-6.564 8.045l-45.876 15.542c-4.232 1.434-8.585-1.819-8.406-6.284.149-3.725.146-20.475.106-36.081z" fill="#9fabce"/></g><g><path d="m130.617 246.451c-4.748 1.043-8.065 5.325-7.979 10.186.19 10.723 1.34 29.321 6.515 44.641 11.65 34.484 38.777 59.506 41.401 85.549.162 1.606 2.013 2.425 3.328 1.488l59.628-67.301c4.358-3.105 5.61-9.032 2.88-13.634l-49.51-70.957c-2.853-3.676-7.737-5.103-12.118-3.535-10.47 3.75-30.039 10.465-44.145 13.563z" fill="#9fabce"/></g><path d="m87.304 233.651c-5.229 11.56-12.506 29.993-14.433 46.643-.855 7.391-3.67 14.42-8.408 20.156-2.914 3.527-5.86 8.533-7.432 15.346-2.143 9.287-8.72 17.768-14.045 23.396-3.105 3.282-8.639 1.423-9.137-3.067-2.361-21.294-1.819-71.847 48.037-106.97 3.026-2.132 6.944 1.123 5.418 4.496z" fill="#FF4858"/><path d="m109.536 212.481c1.953-2.366 5.8-.806 5.555 2.252-1.183 14.768-2.758 43.298.873 60.546 4.187 19.889-21.446 55.068-40.784 69.046-3.613 2.612-8.409-1.107-6.816-5.272l5.66-14.799c4.268-11.161 6.601-22.989 6.672-34.938.101-17.255 4.463-47.31 28.84-76.835z" fill="#FF4858"/><g><path d="m250.413 326.56v159.099c0 4.211-4.761 6.518-7.908 3.832l-17.475-14.912c-10.574-9.023-23.873-13.961-37.601-13.961-6.023 0-11.003-4.836-11.359-11.032l-2.501-43.492c-.297-5.161 2-10.117 6.082-13.123l63.126-70.459c3.196-2.354 7.636 0 7.636 4.048z" fill="#9fabce"/></g><g><path d="m154.76 364.861s11.093 45.266 15.087 88.54c.308 3.334-2.865 6.013-6.203 6.285l-8.569.861c-3.57.291-6.749-2.251-7.25-5.797l-1.822-12.884c-1.613-11.401-1.074-23.003 1.588-34.205z" fill="#9fabce"/></g><g><path d="m258.867 26.421v40.573c0 11.104 4.525 21.699 12.471 29.202l6.777 6.398-7.004 5.929c-7.752 6.562-12.244 16.354-12.244 26.69v168.175c0 3.098 3.995 4.176 5.469 1.476l53.144-77.005c1.911-3.499 2.69-7.526 2.253-11.515-2.17-19.774-3.316-83.149 42.294-101.898 4.63-1.903 4.992-8.496.564-10.854l-59.534-31.704-34.673-48.678c-3.012-4.229-9.517-2.034-9.517 3.211z" fill="#9fabce"/></g><g><path d="m395.064 114.779c-6.027-2.874-12.982-3.088-19.236-.746-10.423 3.903-26.356 10.267-34.07 26.796-5.001 10.716 49.38 7.184 53.425 46.654.575 5.606 3.404 10.745 7.853 14.203 3.317 2.578 4.502 2.967 27.589 23.733 3.378 3.039 8.786 1.387 9.859-3.029 5.54-22.785 12.628-79.931-45.42-107.611z" fill="#9fabce"/></g><g><path d="m389.328 198.948c.044-17.535-10.978-33.187-27.502-39.054l-19.393-6.886c-4.643-2.211-9.247 1.088-10.362 6.109-3.087 13.9-6.93 31.297-3.483 58.609.469 3.714 3.018 6.843 6.564 8.045l45.876 15.542c4.232 1.434 8.585-1.819 8.406-6.284-.149-3.725-.145-20.475-.106-36.081z" fill="#9fabce"/></g><g><path d="m378.663 246.451c4.748 1.043 8.065 5.325 7.979 10.186-.19 10.723-1.34 29.321-6.515 44.641-11.65 34.484-38.777 59.506-41.401 85.549-.162 1.606-2.013 2.425-3.328 1.488l-59.628-66.301c-4.358-3.105-5.61-9.032-2.88-13.634l49.51-71.957c2.853-3.676 7.737-5.103 12.118-3.535 10.47 3.75 30.039 10.465 44.145 13.563z" fill="#9fabce"/></g><path d="m421.976 233.651c5.229 11.56 12.506 29.993 14.433 46.643.855 7.391 3.67 14.42 8.408 20.156 2.914 3.527 5.86 8.533 7.432 15.346 2.143 9.287 8.72 17.768 14.045 23.396 3.105 3.282 8.639 1.423 9.137-3.067 2.361-21.294 1.819-71.847-48.037-106.97-3.027-2.132-6.944 1.123-5.418 4.496z" fill="#FF4858"/><path d="m399.743 212.481c-1.953-2.366-5.8-.806-5.555 2.252 1.183 14.768 2.758 43.298-.873 60.546-4.187 19.889 21.446 55.068 40.784 69.046 3.613 2.612 8.409-1.107 6.816-5.272l-5.66-14.799c-4.268-11.161-6.601-22.989-6.672-34.938-.1-17.255-4.462-47.31-28.84-76.835z" fill="#FF4858"/><g><path d="m258.867 326.56v159.099c0 4.211 4.761 6.518 7.908 3.832l17.475-14.912c10.574-9.023 23.872-13.961 37.602-13.961 6.023 0 11.003-4.836 11.359-11.032l2.501-43.492c.297-5.161-2-10.117-6.082-13.123l-63.126-70.459c-3.197-2.354-7.637 0-7.637 4.048z" fill="#9fabce"/></g><g><path d="m354.52 364.861s-11.093 45.266-15.087 88.54c-.308 3.334 2.865 6.013 6.203 6.285l8.569.861c3.57.291 6.749-2.251 7.25-5.797l1.822-12.884c1.613-11.401 1.074-23.003-1.588-34.205z" fill="#9fabce"/></g></g></svg>

<svg  viewBox="0 0 512 512" fill="none" xmlns="http://www.w3.org/2000/svg">
<path d="M254.771 507.294C201.716 507.294 141.566 471.524 139.032 470.002C137.867 469.303 137.137 468.06 137.094 466.701L135.7 423.114C135.692 422.855 135.709 422.595 135.751 422.341L144.09 371.383C146.287 357.955 142.659 344.385 134.138 334.152C128.679 327.597 125.151 321.726 123.001 317.539L104.347 341.64C104.941 348.952 105.818 378.091 86.625 410.993C86.011 412.046 84.951 412.761 83.745 412.935C82.544 413.114 81.32 412.727 80.432 411.893L25.969 360.74C25.164 359.983 24.707 358.928 24.707 357.824V316.967C24.707 316.919 24.708 316.872 24.71 316.824C26.505 266.548 52.912 242.338 60.822 236.189C59.289 226.434 54.973 190.693 67.237 155.955C80.128 119.438 124.673 103.782 130.023 102.019L201.691 59.3578L208.472 14.7688C208.726 13.0938 210.009 11.7608 211.673 11.4418L234.243 7.11377C247.855 4.50477 261.67 4.45877 275.298 6.98077L299.377 11.4368C301.053 11.7478 302.348 13.0838 302.604 14.7688L309.386 59.3578L381.053 102.019C386.399 103.78 430.949 119.436 443.839 155.955C456.213 191.006 450.382 225.777 448.484 234.917C455.69 242.283 483.012 273.474 484.834 324.471C484.836 324.518 484.837 324.566 484.837 324.614V357.825C484.837 358.91 484.397 359.948 483.616 360.701L430.687 411.853C429.805 412.707 428.581 413.103 427.361 412.94C426.144 412.771 425.072 412.053 424.453 410.993C405.261 378.092 406.137 348.953 406.73 341.64L388.077 317.539C385.928 321.727 382.399 327.598 376.941 334.152C368.418 344.385 364.79 357.955 366.987 371.383L375.326 422.341C375.368 422.596 375.385 422.856 375.377 423.114L373.983 466.701C373.939 468.074 373.193 469.329 372.007 470.024C369.411 471.546 307.803 507.294 254.771 507.294Z" fill="#484F69"/>
<path d="M250.413 26.4208V66.9938C250.413 78.0978 245.888 88.6927 237.942 96.1957L231.165 102.594L238.169 108.523C245.921 115.085 250.413 124.877 250.413 135.213V303.388C250.413 306.486 246.418 307.564 244.944 304.864L191.8 227.859C189.889 224.36 189.11 220.333 189.547 216.344C191.717 196.57 192.863 133.195 147.253 114.446C142.623 112.543 142.261 105.95 146.69 103.592L206.224 71.8878L240.896 23.2097C243.908 18.9807 250.413 21.1758 250.413 26.4208Z" fill="#9FABCE"/>
<path d="M114.216 114.779C120.243 111.905 127.198 111.691 133.452 114.033C143.875 117.936 159.808 124.3 167.522 140.829C172.533 151.567 119.479 147.422 114.328 187.632C113.625 193.119 110.788 198.124 106.434 201.536C102.962 204.257 102.179 204.258 78.654 225.419C75.276 228.458 69.868 226.806 68.795 222.39C63.256 199.605 56.168 142.459 114.216 114.779Z" fill="#9FABCE"/>
<path d="M119.951 198.948C119.907 181.413 130.929 165.761 147.453 159.894L166.846 153.008C171.49 150.797 176.093 154.096 177.208 159.117C180.295 173.017 184.138 190.414 180.691 217.726C180.222 221.44 177.673 224.569 174.127 225.771L128.251 241.313C124.019 242.747 119.666 239.494 119.845 235.029C119.994 231.304 119.991 214.554 119.951 198.948Z" fill="#9FABCE"/>
<path d="M130.617 246.451C125.869 247.494 122.552 251.776 122.638 256.637C122.828 267.36 123.978 285.958 129.153 301.278C140.803 335.762 167.93 360.784 170.554 386.827C170.716 388.433 172.567 389.252 173.882 388.315L233.51 321.014C237.868 317.909 239.12 311.982 236.39 307.38L186.88 236.423C184.027 232.747 179.143 231.32 174.762 232.888C164.292 236.638 144.723 243.353 130.617 246.451Z" fill="#9FABCE"/>
<path d="M87.304 233.651C82.075 245.211 74.798 263.644 72.871 280.294C72.016 287.685 69.201 294.714 64.463 300.45C61.549 303.977 58.603 308.983 57.031 315.796C54.888 325.083 48.311 333.564 42.986 339.192C39.881 342.474 34.347 340.615 33.849 336.125C31.488 314.831 32.03 264.278 81.886 229.155C84.912 227.023 88.83 230.278 87.304 233.651Z" fill="#FF4858"/>
<path d="M109.536 212.481C111.489 210.115 115.336 211.675 115.091 214.733C113.908 229.501 112.333 258.031 115.964 275.279C120.151 295.168 94.518 330.347 75.18 344.325C71.567 346.937 66.771 343.218 68.364 339.053L74.024 324.254C78.292 313.093 80.625 301.265 80.696 289.316C80.797 272.061 85.159 242.006 109.536 212.481Z" fill="#FF4858"/>
<path d="M250.413 326.56V485.659C250.413 489.87 245.652 492.177 242.505 489.491L225.03 474.579C214.456 465.556 201.157 460.618 187.429 460.618C181.406 460.618 176.426 455.782 176.07 449.586L173.569 406.094C173.272 400.933 175.569 395.977 179.651 392.971L242.777 322.512C245.973 320.158 250.413 322.512 250.413 326.56Z" fill="#9FABCE"/>
<path d="M154.76 364.861C154.76 364.861 165.853 410.127 169.847 453.401C170.155 456.735 166.982 459.414 163.644 459.686L155.075 460.547C151.505 460.838 148.326 458.296 147.825 454.75L146.003 441.866C144.39 430.465 144.929 418.863 147.591 407.661L154.76 364.861Z" fill="#9FABCE"/>
<path d="M258.867 26.4208V66.9938C258.867 78.0978 263.392 88.6927 271.338 96.1957L278.115 102.594L271.111 108.523C263.359 115.085 258.867 124.877 258.867 135.213V303.388C258.867 306.486 262.862 307.564 264.336 304.864L317.48 227.859C319.391 224.36 320.17 220.333 319.733 216.344C317.563 196.57 316.417 133.195 362.027 114.446C366.657 112.543 367.019 105.95 362.591 103.592L303.057 71.8878L268.384 23.2097C265.372 18.9807 258.867 21.1758 258.867 26.4208Z" fill="#9FABCE"/>
<path d="M395.064 114.779C389.037 111.905 382.082 111.691 375.828 114.033C365.405 117.936 349.472 124.3 341.758 140.829C336.757 151.545 391.138 148.013 395.183 187.483C395.758 193.089 398.587 198.228 403.036 201.686C406.353 204.264 407.538 204.653 430.625 225.419C434.003 228.458 439.411 226.806 440.484 222.39C446.024 199.605 453.112 142.459 395.064 114.779Z" fill="#9FABCE"/>
<path d="M389.328 198.948C389.372 181.413 378.35 165.761 361.826 159.894L342.433 153.008C337.79 150.797 333.186 154.096 332.071 159.117C328.984 173.017 325.141 190.414 328.588 217.726C329.057 221.44 331.606 224.569 335.152 225.771L381.028 241.313C385.26 242.747 389.613 239.494 389.434 235.029C389.285 231.304 389.289 214.554 389.328 198.948Z" fill="#9FABCE"/>
<path d="M378.663 246.451C383.411 247.494 386.728 251.776 386.642 256.637C386.452 267.36 385.302 285.958 380.127 301.278C368.477 335.762 341.35 360.784 338.726 386.827C338.564 388.433 336.713 389.252 335.398 388.315L275.77 322.014C271.412 318.909 270.16 312.982 272.89 308.38L322.4 236.423C325.253 232.747 330.137 231.32 334.518 232.888C344.988 236.638 364.557 243.353 378.663 246.451Z" fill="#9FABCE"/>
<path d="M421.976 233.651C427.205 245.211 434.482 263.644 436.409 280.294C437.264 287.685 440.079 294.714 444.817 300.45C447.731 303.977 450.677 308.983 452.249 315.796C454.392 325.083 460.969 333.564 466.294 339.192C469.399 342.474 474.933 340.615 475.431 336.125C477.792 314.831 477.25 264.278 427.394 229.155C424.367 227.023 420.45 230.278 421.976 233.651Z" fill="#FF4858"/>
<path d="M399.743 212.481C397.79 210.115 393.943 211.675 394.188 214.733C395.371 229.501 396.946 258.031 393.315 275.279C389.128 295.168 414.761 330.347 434.099 344.325C437.712 346.937 442.508 343.218 440.915 339.053L435.255 324.254C430.987 313.093 428.654 301.265 428.583 289.316C428.483 272.061 424.121 242.006 399.743 212.481Z" fill="#FF4858"/>
<path d="M258.867 326.56V485.659C258.867 489.87 263.628 492.177 266.775 489.491L284.25 474.579C294.824 465.556 308.122 460.618 321.852 460.618C327.875 460.618 332.855 455.782 333.211 449.586L335.712 406.094C336.009 400.933 333.712 395.977 329.63 392.971L266.504 322.512C263.307 320.158 258.867 322.512 258.867 326.56Z" fill="#9FABCE"/>
<path d="M354.52 364.861C354.52 364.861 343.427 410.127 339.433 453.401C339.125 456.735 342.298 459.414 345.636 459.686L354.205 460.547C357.775 460.838 360.954 458.296 361.455 454.75L363.277 441.866C364.89 430.465 364.351 418.863 361.689 407.661L354.52 364.861Z" fill="#9FABCE"/>
</svg>
